X:299
T: ZWISCHEN BERG UND TIEFEM THAL
N: E0170A
O: Europa, Mitteleuropa, Deutschland
R: erzaehlendes Volks - Lied, Sage, Tier - Maerchen, Scherz
M: 3/4
L: 1/16
K: G
 | D3DG4B4 | B4A2G2A4
D2F2A4c4 | c4B4z4
d3cB4d4 | d4c2B2c4
c3BA4c4 | c4B2A2B4
G2B2d4B2G2 | A4G4z4
d3cB4d4 | d4c2B2c4
c3BA4c4 | c4B2A2B4
G2B2d4B2G2 | A4G4z4

